X: 706
T: Aggie's
R: mazurka
M: 3/4
K: Dmajor
A2|:d2 dc de|f2 d2 FG|A2-A2 AB|B2 AG FG|Ee ed ef|gf ed dc|c2 B2 G2|B2 AG FA|
d2 dc de|f2 d2 FG|A2-A2 AB|B2 AG FG|Ee ed ef|gf ed dc|A2 B2 c2|1 d2-dA Bc:|2 d2-de fg||
|:f2 d2 fg|f2 d2 fg|a2-aa gf|e2-e2 ef|e2 c2 ef|(3efe A2 ef|g2 ge ce|d2- de fg:|
fd Ad fg|fd Ad fg|fg ga ab|ba af fe|ef ec Ac|ef ec Ac|ef fg gb|ba ag gf|
fg fd Ad|fg fd Ad|fg ga ab|ba af fg|e2 ed ef|gf ed dc|A2 B2 c2|d2-dA Bc||

